X: 14313
T: Gallagher's Frolics
R: jig
M: 6/8
K: Edorian
|:E2F GFE|~B3 dBA|~B3 ~B3|GBG AFD|
E2F GFE|~B3 dBA|B2G FAF|1 GED E2D:|2 GED EBd||
|:e2f gfe|g2a bge|d2f afd|afd fed|
e2f gfe|d/e/fe dBA|B2G FAF|1 GED EBd:|2 GED E2D||

